X: 51
T:Golden Keyboard
R:Reel
D:Matt Molloy & Sean Keane: Contentment is Wealth.
Z:id:hn-reel-51
M:C|
L:1/8
Q:1/4=200
K:Edor
|:BGEF GFGA|B2gB fBeB|BGEF GBAG|(3FED AD BDAF|
~E3F ~G3A|B2gB fBec|d2dc dBAF|DFAF GEE2:|
|:Be~e2 Beed|Beec dBAc|dA~A2 fA~A2|dfec dBAF|
~E3F GFGA|B2gB fBec|d2dc dBAF|DFAF GEE2:|
